X:80
T:Lamentation for Mac Gregor of Roro
T:Mac Griogair a Ruaro
R:Slow Air
S:MacDonald - Skye Collection
N:pg.153
M:3/4
L:1/8
Q:1/4=80
K:A
E>F|A2 A2 BA/B/|(c2E) z E>F|A2 ~A2 {c}B(A/B/)|(c2E2) (A,/C/E)|c2 ~c2 e>c|
B2A2F2|E2 C>B,CE|F2 A,z E>F|A2A2 BA/B/|(c2E2) ~E>F|A2A2 BA/B/|
c2 E2 (A,/C/E/A/)|c2 ~c2 {c}e>c|{c}B2 A2 A>F|(E2C2) E>C|B,2 A,2||
